X: 161
T: The Poltogue Jigg
O: Irish
B: John Pringle "Collection of Reels Strathspeys & Jigs", 1801 p.16#1
Z: 2011 John Chambers <jc:trillian.mit.edu>
R: slip-jig
M: 9/8
L: 1/8
K: G
V: 1
|: G3 (GF).E (GF).E | G3 (GF).E (AB).c | G3 (GF).E (GF).E | (AB).c (BA).^G (AB).c :|
|: ~c2e gec (BA).G | ~c2e gec (ef)g | ~c2e (gf).e (dc).B | (AB).c (BA).^G (AB).c :|
|: ~E2c (cG).E (cG).E | TE(FE) (cG).E (AB).c | ~E2c (cG).E (cG).E | (AB).c (BA).^G (AB).c :|
V: 2 clef=bass middle=d
|: c3 c3 c3 | c3 c3 c3 | c3 c3 c3 | e3 e3 A3 :|
|: c'3 c'3 g3 | c'3 c'3 c'3 | c'3 c'3 g3 | e3 e3 A3 :|
|: c3 c3 c3 | c3 c3 c3 | c3 c3 c3 | e3 e3 A3 :|

%%sep 2 1 500

